sites/default/files/images/our platform/headings/Step-3-Heading.svg

<svg width="838" height="270" viewBox="0 0 838 270" fill="none" xmlns="http://www.w3.org/2000/svg">
<rect x="469" y="232" width="325" height="17" rx="8.5" fill="white"/>
<path d="M131.714 158.514C131.714 183.09 126.628 201.889 116.455 214.91C106.283 227.931 91.39 234.441 71.7773 234.441C52.4089 234.441 37.5977 228.053 27.3438 215.276C17.0898 202.5 11.8408 184.189 11.5967 160.345V127.63C11.5967 102.809 16.7236 83.9694 26.9775 71.1113C37.3128 58.2533 52.1647 51.8242 71.5332 51.8242C90.9017 51.8242 105.713 58.2126 115.967 70.9893C126.221 83.6846 131.47 101.954 131.714 125.799V158.514ZM96.4355 122.625C96.4355 107.895 94.401 97.1937 90.332 90.5205C86.3444 83.766 80.0781 80.3887 71.5332 80.3887C63.2324 80.3887 57.0882 83.6032 53.1006 90.0322C49.1943 96.3799 47.1191 106.349 46.875 119.939V163.152C46.875 177.638 48.8281 188.421 52.7344 195.501C56.722 202.5 63.0697 205.999 71.7773 205.999C80.4036 205.999 86.6292 202.622 90.4541 195.867C94.279 189.113 96.2728 178.777 96.4355 164.861V122.625ZM191.528 127.508H210.327C219.279 127.508 225.911 125.27 230.225 120.794C234.538 116.318 236.694 110.377 236.694 102.972C236.694 95.8102 234.538 90.2357 230.225 86.248C225.993 82.2604 220.133 80.2666 212.646 80.2666C205.892 80.2666 200.236 82.1383 195.679 85.8818C191.121 89.5439 188.843 94.3454 188.843 100.286H153.564C153.564 91.0088 156.047 82.708 161.011 75.3838C166.056 67.9782 173.055 62.2002 182.007 58.0498C191.04 53.8994 200.968 51.8242 211.792 51.8242C230.591 51.8242 245.321 56.3408 255.981 65.374C266.642 74.3258 271.973 86.6956 271.973 102.483C271.973 110.621 269.491 118.108 264.526 124.944C259.562 131.78 253.052 137.029 244.995 140.691C255.005 144.272 262.451 149.643 267.334 156.805C272.298 163.966 274.78 172.43 274.78 182.195C274.78 197.983 269.002 210.638 257.446 220.159C245.972 229.681 230.754 234.441 211.792 234.441C194.051 234.441 179.525 229.762 168.213 220.403C156.982 211.045 151.367 198.675 151.367 183.294H186.646C186.646 189.967 189.128 195.42 194.092 199.651C199.137 203.883 205.322 205.999 212.646 205.999C221.029 205.999 227.58 203.802 232.3 199.407C237.101 194.931 239.502 189.031 239.502 181.707C239.502 163.966 229.736 155.096 210.205 155.096H191.528V127.508Z" fill="#2A2A2A"/>
<g filter="url(#filter0_d)">
<path d="M192.207 163.34C192.754 167.285 193.828 170.234 195.43 172.188C198.359 175.742 203.379 177.52 210.488 177.52C214.746 177.52 218.203 177.051 220.859 176.113C225.898 174.316 228.418 170.977 228.418 166.094C228.418 163.242 227.168 161.035 224.668 159.473C222.168 157.949 218.242 156.602 212.891 155.43L203.75 153.379C194.766 151.348 188.555 149.141 185.117 146.758C179.297 142.773 176.387 136.543 176.387 128.066C176.387 120.332 179.199 113.906 184.824 108.789C190.449 103.672 198.711 101.113 209.609 101.113C218.711 101.113 226.465 103.535 232.871 108.379C239.316 113.184 242.695 120.176 243.008 129.355H225.664C225.352 124.16 223.086 120.469 218.867 118.281C216.055 116.836 212.559 116.113 208.379 116.113C203.73 116.113 200.02 117.051 197.246 118.926C194.473 120.801 193.086 123.418 193.086 126.777C193.086 129.863 194.453 132.168 197.188 133.691C198.945 134.707 202.695 135.898 208.438 137.266L223.32 140.84C229.844 142.402 234.766 144.492 238.086 147.109C243.242 151.172 245.82 157.051 245.82 164.746C245.82 172.637 242.793 179.199 236.738 184.434C230.723 189.629 222.207 192.227 211.191 192.227C199.941 192.227 191.094 189.668 184.648 184.551C178.203 179.395 174.98 172.324 174.98 163.34H192.207ZM251.27 138.613V126.719H260.176V108.906H276.699V126.719H287.07V138.613H276.699V172.363C276.699 174.98 277.031 176.621 277.695 177.285C278.359 177.91 280.391 178.223 283.789 178.223C284.297 178.223 284.824 178.223 285.371 178.223C285.957 178.184 286.523 178.145 287.07 178.105V190.586L279.16 190.879C271.27 191.152 265.879 189.785 262.988 186.777C261.113 184.863 260.176 181.914 260.176 177.93V138.613H251.27ZM322.988 138.203C319.121 138.203 316.113 139.414 313.965 141.836C311.855 144.258 310.527 147.539 309.98 151.68H335.938C335.664 147.266 334.316 143.926 331.895 141.66C329.512 139.355 326.543 138.203 322.988 138.203ZM322.988 124.434C328.301 124.434 333.086 125.43 337.344 127.422C341.602 129.414 345.117 132.559 347.891 136.855C350.391 140.645 352.012 145.039 352.754 150.039C353.184 152.969 353.359 157.188 353.281 162.695H309.57C309.805 169.102 311.816 173.594 315.605 176.172C317.91 177.773 320.684 178.574 323.926 178.574C327.363 178.574 330.156 177.598 332.305 175.645C333.477 174.59 334.512 173.125 335.41 171.25H352.461C352.031 175.039 350.059 178.887 346.543 182.793C341.074 189.004 333.418 192.109 323.574 192.109C315.449 192.109 308.281 189.492 302.07 184.258C295.859 179.023 292.754 170.508 292.754 158.711C292.754 147.656 295.547 139.18 301.133 133.281C306.758 127.383 314.043 124.434 322.988 124.434ZM408.594 158.066C408.594 153.145 407.461 148.789 405.195 145C402.969 141.211 399.336 139.316 394.297 139.316C388.242 139.316 384.082 142.188 381.816 147.93C380.645 150.977 380.059 154.844 380.059 159.531C380.059 166.953 382.031 172.168 385.977 175.176C388.32 176.934 391.094 177.812 394.297 177.812C398.945 177.812 402.48 176.016 404.902 172.422C407.363 168.828 408.594 164.043 408.594 158.066ZM399.102 124.727C406.562 124.727 412.871 127.48 418.027 132.988C423.223 138.496 425.82 146.582 425.82 157.246C425.82 168.496 423.281 177.07 418.203 182.969C413.164 188.867 406.66 191.816 398.691 191.816C393.613 191.816 389.395 190.547 386.035 188.008C384.199 186.602 382.402 184.551 380.645 181.855V215.137H364.121V126.133H380.117V135.566C381.914 132.793 383.828 130.605 385.859 129.004C389.57 126.152 393.984 124.727 399.102 124.727ZM535.449 103.633V118.926H509.609V190H491.445V118.926H465.488V103.633H535.449ZM579.922 124.492C583.867 124.492 587.441 125.176 590.645 126.543C593.887 127.91 596.543 130 598.613 132.812C600.371 135.195 601.445 137.656 601.836 140.195C602.227 142.695 602.422 146.797 602.422 152.5V190H585.371V151.152C585.371 147.715 584.785 144.941 583.613 142.832C582.09 139.863 579.199 138.379 574.941 138.379C570.527 138.379 567.168 139.863 564.863 142.832C562.598 145.762 561.465 149.961 561.465 155.43V190H544.824V103.926H561.465V134.453C563.887 130.742 566.68 128.164 569.844 126.719C573.047 125.234 576.406 124.492 579.922 124.492ZM652.754 124.609C653.066 124.609 653.32 124.629 653.516 124.668C653.75 124.668 654.238 124.688 654.98 124.727V141.836C653.926 141.719 652.988 141.641 652.168 141.602C651.348 141.562 650.684 141.543 650.176 141.543C643.457 141.543 638.945 143.73 636.641 148.105C635.352 150.566 634.707 154.355 634.707 159.473V190H617.891V126.133H633.828V137.266C636.406 133.008 638.652 130.098 640.566 128.535C643.691 125.918 647.754 124.609 652.754 124.609ZM690.02 138.203C686.152 138.203 683.145 139.414 680.996 141.836C678.887 144.258 677.559 147.539 677.012 151.68H702.969C702.695 147.266 701.348 143.926 698.926 141.66C696.543 139.355 693.574 138.203 690.02 138.203ZM690.02 124.434C695.332 124.434 700.117 125.43 704.375 127.422C708.633 129.414 712.148 132.559 714.922 136.855C717.422 140.645 719.043 145.039 719.785 150.039C720.215 152.969 720.391 157.188 720.312 162.695H676.602C676.836 169.102 678.848 173.594 682.637 176.172C684.941 177.773 687.715 178.574 690.957 178.574C694.395 178.574 697.188 177.598 699.336 175.645C700.508 174.59 701.543 173.125 702.441 171.25H719.492C719.062 175.039 717.09 178.887 713.574 182.793C708.105 189.004 700.449 192.109 690.605 192.109C682.48 192.109 675.312 189.492 669.102 184.258C662.891 179.023 659.785 170.508 659.785 158.711C659.785 147.656 662.578 139.18 668.164 133.281C673.789 127.383 681.074 124.434 690.02 124.434ZM756.816 138.203C752.949 138.203 749.941 139.414 747.793 141.836C745.684 144.258 744.355 147.539 743.809 151.68H769.766C769.492 147.266 768.145 143.926 765.723 141.66C763.34 139.355 760.371 138.203 756.816 138.203ZM756.816 124.434C762.129 124.434 766.914 125.43 771.172 127.422C775.43 129.414 778.945 132.559 781.719 136.855C784.219 140.645 785.84 145.039 786.582 150.039C787.012 152.969 787.188 157.188 787.109 162.695H743.398C743.633 169.102 745.645 173.594 749.434 176.172C751.738 177.773 754.512 178.574 757.754 178.574C761.191 178.574 763.984 177.598 766.133 175.645C767.305 174.59 768.34 173.125 769.238 171.25H786.289C785.859 175.039 783.887 178.887 780.371 182.793C774.902 189.004 767.246 192.109 757.402 192.109C749.277 192.109 742.109 189.492 735.898 184.258C729.688 179.023 726.582 170.508 726.582 158.711C726.582 147.656 729.375 139.18 734.961 133.281C740.586 127.383 747.871 124.434 756.816 124.434Z" fill="#59C9FF"/>
</g>
<defs>
<filter id="filter0_d" x="124.98" y="55.1133" width="712.147" height="214.023" filterUnits="userSpaceOnUse" color-interpolation-filters="sRGB">
<feFlood flood-opacity="0" result="BackgroundImageFix"/>
<feColorMatrix in="SourceAlpha" type="matrix" values="0 0 0 0 0 0 0 0 0 0 0 0 0 0 0 0 0 0 127 0"/>
<feOffset dy="4"/>
<feGaussianBlur stdDeviation="25"/>
<feColorMatrix type="matrix" values="0 0 0 0 1 0 0 0 0 1 0 0 0 0 1 0 0 0 0.25 0"/>
<feBlend mode="normal" in2="BackgroundImageFix" result="effect1_dropShadow"/>
<feBlend mode="normal" in="SourceGraphic" in2="effect1_dropShadow" result="shape"/>
</filter>
</defs>
</svg>

<svg xmlns="http://www.w3.org/2000/svg" width="838" height="270" fill="none"><rect width="325" height="17" x="469" y="232" fill="#fff" rx="8.5"/><path fill="#2a2a2a" d="M131.71 158.51c0 24.58-5.08 43.38-15.26 56.4s-25.05 19.53-44.67 19.53c-19.37 0-34.18-6.39-44.44-19.16s-15.5-31.1-15.74-54.93v-32.72c0-24.82 5.12-43.66 15.38-56.52C37.3 58.25 52.16 51.82 71.53 51.82s34.18 6.4 44.44 19.17c10.25 12.7 15.5 30.96 15.74 54.8v32.71zm-35.27-35.89c0-14.73-2.04-25.43-6.1-32.1-4-6.75-10.26-10.13-18.8-10.13-8.3 0-14.45 3.21-18.44 9.64-3.9 6.35-5.98 16.32-6.23 29.9v43.22c0 14.49 1.96 25.27 5.86 32.35 4 7 10.34 10.5 19.05 10.5 8.62 0 14.85-3.38 18.67-10.13s5.82-17.1 5.98-31v-42.24zm95.09 4.89h18.8c8.95 0 15.58-2.24 19.9-6.72s6.47-10.41 6.47-17.82c0-7.16-2.16-12.73-6.47-16.72-4.24-4-10.1-5.98-17.58-5.98-6.76 0-12.4 1.87-16.97 5.61-4.56 3.66-6.84 8.47-6.84 14.4h-35.28c0-9.27 2.49-17.57 7.45-24.9 5.05-7.4 12.04-13.18 21-17.33 9.03-4.15 18.96-6.23 29.78-6.23 18.8 0 33.53 4.52 44.2 13.55 10.65 8.96 15.98 21.33 15.98 37.11 0 8.14-2.48 15.63-7.44 22.46S253.05 137.03 245 140.7c10 3.58 17.45 8.95 22.34 16.11 4.96 7.16 7.44 15.63 7.44 25.4 0 15.8-5.78 28.45-17.33 37.97-11.48 9.52-26.7 14.28-45.66 14.28-17.74 0-32.26-4.68-43.58-14.04-11.23-9.36-16.84-21.73-16.84-37.1h35.28c0 6.67 2.48 12.12 7.44 16.35 5.05 4.23 11.23 6.35 18.56 6.35 8.38 0 14.93-2.2 19.65-6.6 4.8-4.47 7.2-10.37 7.2-17.7 0-17.73-9.76-26.6-29.3-26.6h-18.67v-27.6z"/><g filter="url(#A)"><path fill="#59c9ff" d="M192.2 163.34c.55 3.94 1.63 6.9 3.23 8.85 2.93 3.55 7.95 5.33 15.06 5.33 4.26 0 7.71-.47 10.37-1.4 5.04-1.8 7.56-5.14 7.56-10.03a7.39 7.39 0 00-3.75-6.62c-2.5-1.52-6.43-2.87-11.78-4.04l-9.14-2.05c-8.98-2.03-15.2-4.24-18.63-6.62-5.82-3.99-8.73-10.22-8.73-18.7 0-7.73 2.81-14.15 8.44-19.27s13.88-7.68 24.78-7.68c9.1 0 16.86 2.43 23.26 7.27 6.45 4.8 9.83 11.8 10.14 20.98h-17.34c-.32-5.2-2.58-8.89-6.8-11.08-2.81-1.44-6.31-2.17-10.49-2.17-4.65 0-8.36.94-11.13 2.82s-4.16 4.49-4.16 7.85a7.43 7.43 0 004.1 6.91c1.76 1.02 5.5 2.2 11.25 3.58l14.88 3.57c6.53 1.56 11.45 3.65 14.77 6.27 5.15 4.06 7.73 9.94 7.73 17.64 0 7.89-3.03 14.45-9.08 19.69-6.02 5.2-14.53 7.79-25.55 7.79-11.25 0-20.1-2.56-26.54-7.68-6.45-5.15-9.67-12.22-9.67-21.2h17.23zm59.07-24.73v-11.89h8.9v-17.81h16.53v17.81h10.37v11.9H276.7v33.74c0 2.62.33 4.26 1 4.93.66.62 2.7.93 6.09.93h1.58l1.7-.11v12.48l-7.9.29c-7.9.27-13.28-1.1-16.17-4.1-1.88-1.92-2.81-4.87-2.81-8.85v-39.32h-8.9zm71.72-.4c-3.87 0-6.88 1.21-9.03 3.64-2.1 2.42-3.43 5.7-3.98 9.84h25.96c-.28-4.41-1.62-7.75-4.05-10.02a12.3 12.3 0 00-8.9-3.46zm0-13.77c5.31 0 10.1 1 14.35 3s7.78 5.13 10.55 9.42c2.5 3.8 4.12 8.19 4.86 13.19.43 2.93.6 7.15.53 12.65h-43.7c.23 6.41 2.24 10.9 6.03 13.48 2.3 1.6 5.08 2.4 8.32 2.4 3.43 0 6.23-.97 8.38-2.93a13.91 13.91 0 003.1-4.4h17.05c-.43 3.8-2.4 7.64-5.92 11.55-5.47 6.21-13.12 9.32-22.97 9.32-8.12 0-15.29-2.62-21.5-7.85s-9.32-13.75-9.32-25.55c0-11.05 2.8-19.53 8.38-25.43 5.63-5.9 12.9-8.85 21.86-8.85zm85.6 33.63c0-4.92-1.13-9.27-3.4-13.06-2.22-3.8-5.86-5.69-10.9-5.69-6.05 0-10.2 2.88-12.47 8.62-1.17 3.05-1.76 6.91-1.76 11.6 0 7.42 1.97 12.64 5.92 15.64a13.47 13.47 0 008.32 2.64c4.64 0 8.18-1.8 10.6-5.4 2.46-3.6 3.7-8.38 3.7-14.36zm-9.49-33.34c7.46 0 13.77 2.76 18.93 8.26 5.2 5.51 7.79 13.6 7.79 24.26 0 11.25-2.54 19.83-7.62 25.73-5.04 5.9-11.54 8.84-19.5 8.84-5.09 0-9.3-1.27-12.67-3.8a24.74 24.74 0 01-5.4-6.16v33.28h-16.51v-89h16v9.43a26.8 26.8 0 015.74-6.56c3.7-2.85 8.12-4.28 13.24-4.28zm136.35-21.09v15.3H509.6V190h-18.17v-71.07H465.5v-15.3h69.96zm44.47 20.86c3.95 0 7.52.68 10.72 2.05a18.76 18.76 0 017.97 6.27 16.67 16.67 0 013.23 7.38c.39 2.5.58 6.6.58 12.3V190h-17.05v-38.85c0-3.44-.58-6.2-1.76-8.32-1.52-2.97-4.41-4.45-8.67-4.45-4.41 0-7.77 1.48-10.08 4.45-2.26 2.93-3.4 7.13-3.4 12.6V190h-16.63v-86.07h16.64v30.52c2.42-3.7 5.21-6.29 8.38-7.73a23.68 23.68 0 0110.07-2.23zm72.83.12a4.03 4.03 0 01.77.06c.23 0 .72.02 1.46.06v17.1a45.33 45.33 0 00-2.81-.23c-.82-.04-1.49-.06-2-.06-6.71 0-11.22 2.19-13.53 6.56-1.29 2.46-1.93 6.25-1.93 11.37V190h-16.82v-63.87h15.94v11.14c2.57-4.26 4.82-7.17 6.73-8.73 3.13-2.62 7.2-3.93 12.2-3.93zm37.27 13.6c-3.87 0-6.88 1.2-9.02 3.62-2.11 2.43-3.44 5.7-3.99 9.85h25.96c-.28-4.42-1.62-7.76-4.04-10.02a12.3 12.3 0 00-8.91-3.46zm0-13.78c5.31 0 10.1 1 14.35 2.99s7.78 5.14 10.55 9.43c2.5 3.8 4.12 8.19 4.86 13.19.43 2.93.61 7.15.53 12.65h-43.7c.24 6.41 2.25 10.9 6.04 13.48 2.3 1.6 5.07 2.4 8.32 2.4 3.43 0 6.23-.97 8.38-2.93a13.91 13.91 0 003.1-4.4h17.05c-.43 3.8-2.4 7.64-5.92 11.55-5.47 6.21-13.12 9.32-22.97 9.32-8.12 0-15.29-2.62-21.5-7.85s-9.32-13.75-9.32-25.55c0-11.06 2.8-19.53 8.38-25.43 5.63-5.9 12.9-8.85 21.86-8.85zm66.8 13.77c-3.87 0-6.88 1.21-9.03 3.63-2.1 2.43-3.44 5.7-3.98 9.85h25.96c-.28-4.42-1.62-7.76-4.05-10.02a12.3 12.3 0 00-8.9-3.46zm0-13.77c5.3 0 10.1 1 14.35 2.99s7.77 5.14 10.55 9.43c2.5 3.8 4.12 8.19 4.86 13.19.43 2.93.6 7.15.53 12.65H743.4c.23 6.41 2.25 10.9 6.04 13.48 2.3 1.6 5.07 2.4 8.31 2.4 3.44 0 6.23-.97 8.38-2.93a13.91 13.91 0 003.11-4.4h17.05c-.43 3.8-2.4 7.64-5.92 11.55-5.47 6.21-13.12 9.32-22.97 9.32-8.12 0-15.3-2.62-21.5-7.85s-9.32-13.75-9.32-25.55c0-11.06 2.8-19.53 8.38-25.43 5.63-5.9 12.9-8.85 21.86-8.85z"/></g><defs><filter id="A" width="712.147" height="214.023" x="124.98" y="55.113" color-interpolation-filters="sRGB" filterUnits="userSpaceOnUse"><feFlood flood-opacity="0" result="A"/><feColorMatrix in="SourceAlpha" values="0 0 0 0 0 0 0 0 0 0 0 0 0 0 0 0 0 0 127 0"/><feOffset dy="4"/><feGaussianBlur stdDeviation="25"/><feColorMatrix values="0 0 0 0 1 0 0 0 0 1 0 0 0 0 1 0 0 0 0.25 0"/><feBlend in2="A"/><feBlend in="SourceGraphic"/></filter></defs></svg>
